icon-svg/magentatv.svg

<svg xmlns="http://www.w3.org/2000/svg" fill="#44739e" viewBox="0 0 24 24"><path d="M9.274 17.529s-.413.013-.409.01c.009 1.626-.437 2.334-1.866 3.4 3 .059 4.558.049 7.455.052-1.393-.689-2.488-.829-3.575-1.7a6.21 6.21 0 0 1-1.605-1.762m2.249 1.091c.36.285.872.467 4.631 2.156.8-.306.487-.289 1.068-.706.13-1.645.254-3.374.368-5.1.053-.8.037-.872.058-2.054-2.709 1.543-4.543 2.46-7.41 4.191a4.6 4.6 0 0 0 1.285 1.513m6.802-6.869h-.009c-.003.04.003.024.009 0m.165 3.077a30.9 30.9 0 0 1-.364 4.3c1.424-2.617 2.225-4.095 3.361-6.644a20.06 20.06 0 0 1-2.969.346c-.009 1.07.009 1.109-.028 1.998m-.165-3.077a16.25 16.25 0 0 0 3.175-.07 64.9 64.9 0 0 0-3.782-7.334 49.45 49.45 0 0 1 .6 7.4c.035-.124.02-.041.007.004m-9.633 5.458v-.157c0-3.222.1-5.762.062-9.231-1.546.9-6.254 3.645-6.254 3.645v1.428c1.483 1.032 1.886 1.409 3.226 2.2 1.17.793 2.965 2.153 2.965 2.153zm8.795-5.803c-.114-2.454-.176-4.931-.468-7.8-.678-.489-.353-.238-.782-.538-1.788.7-4.8 2.339-6.188 2.878a1.91 1.91 0 0 0-.261.555c2.786 1.842 4.746 3.161 7.699 4.905M9.268 6.059c-.8-.812-1.392-1.431-2.376-2.331a70.5 70.5 0 0 0-4.187 6.786Zm.362-.841c1.694-.869 3.706-1.63 5.042-2.192-.348 0-.112-.014-.455-.015-2.405-.008-4.023.075-6.339.124a13.9 13.9 0 0 1 1.793 2.184c-.025-.06-.041-.101-.041-.101M8.047 17.836c-.715-.487-1.74-1.144-2.256-1.516-1.291-.878-1.815-1.27-3.136-2.294 1.277 2.484 2.331 3.847 3.605 6.182 1.547-.95 1.669-1.717 1.787-2.372"/></svg>

<?xml version="1.0" encoding="UTF-8"?>
<svg width="24px" fill="#44739e" height="24px" viewBox="0 0 24 24" version="1.1" xmlns="http://www.w3.org/2000/svg" xmlns:xlink="http://www.w3.org/1999/xlink">
            <path d="m 9.274,17.529 c 0,0 -0.413,0.013 -0.409,0.01 0.004,-0.003 0,0 0,0 0.009,1.626 -0.437,2.334 -1.866,3.4 3,0.059 4.558,0.049 7.455,0.052 -1.393,-0.689 -2.488,-0.829 -3.575,-1.7 A 6.208,6.208 0 0 1 9.274,17.529 Z m 2.249,1.091 v 0 c 0.36,0.285 0.872,0.467 4.631,2.156 0.8,-0.306 0.487,-0.289 1.068,-0.706 0.13,-1.645 0.254,-3.374 0.368,-5.1 0.053,-0.8 0.037,-0.872 0.058,-2.054 -2.709,1.543 -4.543,2.46 -7.41,4.191 a 4.6,4.6 0 0 0 1.285,1.513 z m 6.802,-6.869 h -0.009 c -0.003,0.04 0.003,0.024 0.009,0 z m 0.165,3.077 a 30.94,30.94 0 0 1 -0.364,4.3 c 1.424,-2.617 2.225,-4.095 3.361,-6.644 a 20.059,20.059 0 0 1 -2.969,0.346 c -0.009,1.07 0.009,1.109 -0.028,1.998 z m -0.165,-3.077 a 16.25,16.25 0 0 0 3.175,-0.07 64.861,64.861 0 0 0 -3.782,-7.334 49.45,49.45 0 0 1 0.6,7.4 c 0.035,-0.124 0.02,-0.041 0.007,0.004 z m -9.633,5.458 v -0.157 c 0,-3.222 0.1,-5.762 0.062,-9.231 C 7.208,8.721 2.5,11.466 2.5,11.466 v 1.428 c 1.483,1.032 1.886,1.409 3.226,2.2 1.17,0.793 2.965,2.153 2.965,2.153 z m 8.795,-5.803 C 17.373,8.952 17.311,6.475 17.019,3.606 16.341,3.117 16.666,3.368 16.237,3.068 c -1.788,0.7 -4.8,2.339 -6.188,2.878 A 1.914,1.914 0 0 0 9.788,6.501 c 2.786,1.842 4.746,3.161 7.699,4.905 z M 9.268,6.059 C 8.468,5.247 7.876,4.628 6.892,3.728 A 70.512,70.512 0 0 0 2.705,10.514 Z M 9.63,5.218 c 1.694,-0.869 3.706,-1.63 5.042,-2.192 -0.348,0 -0.112,-0.014 -0.455,-0.015 v 0 C 11.812,3.003 10.194,3.086 7.878,3.135 A 13.884,13.884 0 0 1 9.671,5.319 C 9.646,5.259 9.63,5.218 9.63,5.218 Z M 8.047,17.836 C 7.332,17.349 6.307,16.692 5.791,16.32 4.5,15.442 3.976,15.05 2.655,14.026 c 1.277,2.484 2.331,3.847 3.605,6.182 1.547,-0.95 1.669,-1.717 1.787,-2.372 z"/>

</svg>
